src/next/cmd/32/ru/underlinedouble.svg

<svg height="32" viewBox="0 0 8.4666665 8.466667" width="32" xmlns="http://www.w3.org/2000/svg" xmlns:xlink="http://www.w3.org/1999/xlink"><linearGradient id="a" gradientUnits="userSpaceOnUse" x1="16.93333270167" x2="16.93333270167" y1="2.11666804292" y2="14.81666809833"><stop offset="0" stop-color="#3b3e22"/><stop offset="1" stop-color="#454545" stop-opacity="0"/></linearGradient><linearGradient id="b" gradientTransform="matrix(1.3125088 0 0 1.3125089 -4.413259 -357.73476)" gradientUnits="userSpaceOnUse" x1="18.708687" x2="18.753332" y1="292.76666" y2="275.57822"><stop offset="0" stop-color="#555"/><stop offset="1"/></linearGradient><g transform="matrix(.25 0 0 .25 0 -.000002)"><rect fill="#0e0e0e" height="2.116674" rx=".472075" ry=".9247" width="27.516666" x="3.175" y="27.516672"/><rect fill="#0e0e0e" height="2.116674" rx=".472075" ry=".9247" width="27.516666" x="3.175" y="31.750011"/><g stroke-width="1.154997"><path d="m11.929171 12.52917q0 1.604378.97235 2.673963 1.020968 1.020968 2.771198 1.020968 1.069586 0 2.285024-.38894 1.264055-.38894 1.9447-.77788l.680645-.340323v-6.0771893q0-1.8960831-.632027-2.6253459-.58341-.7292627-2.479494-.9237328v-.7292627h10.306914v.7292627q-1.944701.2430876-2.528111.9237328-.58341.6320277-.58341 2.6253459v12.6405543q0 2.528111.58341 3.257373.58341.729263 2.528111.972351v.729262h-10.306914v-.729262q1.993319-.243088 2.528111-.923733.58341-.680645.58341-3.305991v-5.299309q-2.72258 1.701613-6.077189 1.701613-.97235 0-1.993318-.19447-1.020968-.243088-2.139171-.729263-1.1182027-.534793-1.8474654-1.604378-.6806452-1.069586-.6806452-2.528111v-3.9866363q-.0486175-2.0419357-.6320277-2.6739634-.5834102-.6320277-2.4794933-.8751153v-.7292627h10.3069136v.7292627q-1.896083.2430876-2.528111.9237328-.58341.6320277-.58341 2.6253459z" fill="url(#b)" transform="scale(1.0311756 .96976693)"/><path d="m5.2870157 4.6100549v.019121c1.1267462.165807 1.9723974.4121026 2.4489462.8976197.54478.5550318.7248083 1.4876895.7591269 2.8432373a.40465545.38055736 0 0 1 0 .0093v3.8659121c0 .881658.2137021 1.616455.6345865 2.24069.4633822.637602 1.0368247 1.106515 1.7378787 1.422652.0014.000608.0028.000926.0041.0016.74071.302014 1.446709.52625 2.114599.676444.676045.120642 1.33344.181901 1.971974.181901 2.237532 0 4.245506-.530251 6.053894-1.593184a.40465545.38055736 0 0 1 .618567.321944v2.569316a17.063732 8.6259946 0 0 0 3.399269-.434092v-9.2531821c0-1.3227333.165008-2.2435414.706934-2.7993122.47746-.5192157 1.346359-.7803359 2.503724-.9487795v-.021188h-9.82059v.019121c1.129943.147972 1.994147.4125564 2.463415.9601481.544157.5952221.747241 1.5259658.747241 2.7900106v5.8926631a.40465545.38055736 0 0 1 -.223758.340547l-.7028.329696.02015-.01137c-.509713.273919-1.201128.532177-2.084627.788065-.868456.261356-1.695205.395842-2.479435.395842-1.281991 0-2.358107-.365603-3.141411-1.102259a.40465545.38055736 0 0 1 -.01447-.01343c-.736075-.761513-1.107383-1.734215-1.107382-2.848408v-3.7713461c0-1.3255633.161401-2.2491966.706934-2.8049968a.40465545.38055736 0 0 1 .0021-.00206c.498796-.5052161 1.363676-.7706985 2.499036-.9410317v-.021188z" fill="url(#a)"/></g></g></svg>

<?xml version="1.0" encoding="UTF-8" standalone="no"?>
<svg
   xmlns:dc="http://purl.org/dc/elements/1.1/"
   xmlns:cc="http://creativecommons.org/ns#"
   xmlns:rdf="http://www.w3.org/1999/02/22-rdf-syntax-ns#"
   xmlns:svg="http://www.w3.org/2000/svg"
   xmlns="http://www.w3.org/2000/svg"
   xmlns:xlink="http://www.w3.org/1999/xlink"
   xmlns:sodipodi="http://sodipodi.sourceforge.net/DTD/sodipodi-0.dtd"
   xmlns:inkscape="http://www.inkscape.org/namespaces/inkscape"
   height="32"
   viewBox="0 0 8.4666665 8.466667"
   width="32"
   version="1.1"
   id="svg20"
   sodipodi:docname="underlinedouble.svg"
   inkscape:version="0.92.4 (unknown)"
   inkscape:export-filename="/home/rizmut/Dokumen/Rizmut/Github/libreoffice-style-karasa-jaga/build/next/cmd/32/ru/underlinedouble.png"
   inkscape:export-xdpi="96"
   inkscape:export-ydpi="96">
  <metadata
     id="metadata26">
    <rdf:RDF>
      <cc:Work
         rdf:about="">
        <dc:format>image/svg+xml</dc:format>
        <dc:type
           rdf:resource="http://purl.org/dc/dcmitype/StillImage" />
        <dc:title></dc:title>
      </cc:Work>
    </rdf:RDF>
  </metadata>
  <defs
     id="defs24">
    <linearGradient
       gradientTransform="scale(0.26458334)"
       inkscape:collect="always"
       xlink:href="#b"
       id="linearGradient850"
       x1="63.999996"
       y1="8.0000048"
       x2="63.999996"
       y2="56.000004"
       gradientUnits="userSpaceOnUse" />
    <linearGradient
       id="linearGradient1434"
       gradientUnits="userSpaceOnUse"
       x1="44.923828"
       x2="44.566963"
       y1="7.5816121"
       y2="97.581612"
       gradientTransform="scale(0.26458333)">
      <stop
         offset="0"
         stop-color="#3b3e22"
         id="stop7-3" />
      <stop
         offset="1"
         stop-color="#454545"
         stop-opacity="0"
         id="stop9-6" />
    </linearGradient>
    <linearGradient
       inkscape:collect="always"
       xlink:href="#a-7"
       id="linearGradient833"
       gradientUnits="userSpaceOnUse"
       gradientTransform="matrix(1.3125088,0,0,1.3125089,-4.4132592,-357.73476)"
       x1="18.708687"
       y1="292.76666"
       x2="18.753332"
       y2="275.57822" />
    <linearGradient
       id="a-7"
       gradientUnits="userSpaceOnUse"
       x1="18.708687"
       x2="19.767019"
       y1="292.76666"
       y2="268.42499"
       gradientTransform="matrix(0.96976693,0,0,0.96976693,1.0596924,-256.77543)">
      <stop
         offset="0"
         stop-color="#555"
         id="stop2-5" />
      <stop
         offset="1"
         id="stop4-3" />
    </linearGradient>
    <linearGradient
       inkscape:collect="always"
       xlink:href="#a-7"
       id="linearGradient1401"
       gradientUnits="userSpaceOnUse"
       gradientTransform="matrix(1.3125088,0,0,1.3125089,-4.4132593,-357.73477)"
       x1="18.708687"
       y1="292.76666"
       x2="18.753332"
       y2="275.57822" />
  </defs>
  <sodipodi:namedview
     pagecolor="#ffffff"
     bordercolor="#666666"
     borderopacity="1"
     objecttolerance="10"
     gridtolerance="10"
     guidetolerance="10"
     inkscape:pageopacity="0"
     inkscape:pageshadow="2"
     inkscape:window-width="1366"
     inkscape:window-height="706"
     id="namedview22"
     showgrid="true"
     inkscape:zoom="14.75"
     inkscape:cx="32.66829"
     inkscape:cy="17.507464"
     inkscape:window-x="0"
     inkscape:window-y="0"
     inkscape:window-maximized="1"
     inkscape:current-layer="g1490">
    <inkscape:grid
       type="xygrid"
       id="grid823"
       spacingx="0.13229167"
       spacingy="0.13229167" />
  </sodipodi:namedview>
  <linearGradient
     id="a"
     gradientUnits="userSpaceOnUse"
     x1="18.708687"
     x2="19.767019"
     y1="292.76666"
     y2="268.42499"
     gradientTransform="matrix(0.93738306,0,0,0.93738306,1.0243056,-248.02101)">
    <stop
       offset="0"
       stop-color="#555"
       id="stop2" />
    <stop
       offset="1"
       id="stop4" />
  </linearGradient>
  <linearGradient
     id="b"
     gradientUnits="userSpaceOnUse"
     x1="44.923828"
     x2="44.566963"
     y1="7.5816121"
     y2="97.581612"
     gradientTransform="scale(0.26458333)">
    <stop
       offset="0"
       stop-color="#3b3e22"
       id="stop7" />
    <stop
       offset="1"
       stop-color="#454545"
       stop-opacity="0"
       id="stop9" />
  </linearGradient>
  <g
     id="g1490"
     transform="matrix(0.25,0,0,0.25,2.6419067e-7,-2.4738091e-6)">
    <rect
       height="2.1166739"
       rx="0.47207496"
       ry="0.92470002"
       width="27.516666"
       x="3.175"
       y="27.516672"
       id="rect11"
       style="fill:#0e0e0e;stroke-width:1" />
    <rect
       height="2.1166739"
       rx="0.47207496"
       ry="0.92470002"
       width="27.516666"
       x="3.175"
       y="31.750011"
       id="rect15"
       style="fill:#0e0e0e;stroke-width:1" />
    <g
       aria-label="ч"
       transform="scale(1.0311756,0.96976693)"
       style="font-size:46.19987869px;font-family:sans-serif;letter-spacing:0;word-spacing:0;fill:url(#linearGradient833);stroke-width:1.15499723"
       id="text831">
      <path
         d="m 11.929171,12.52917 q 0,1.604378 0.97235,2.673963 1.020968,1.020968 2.771198,1.020968 1.069586,0 2.285024,-0.38894 1.264055,-0.38894 1.9447,-0.77788 l 0.680645,-0.340323 V 8.6397687 q 0,-1.8960831 -0.632027,-2.6253459 Q 19.367651,5.2851601 17.471567,5.09069 V 4.3614273 H 27.778481 V 5.09069 Q 25.83378,5.3337776 25.25037,6.0144228 24.66696,6.6464505 24.66696,8.6397687 V 21.280323 q 0,2.528111 0.58341,3.257373 0.58341,0.729263 2.528111,0.972351 v 0.729262 H 17.471567 v -0.729262 q 1.993319,-0.243088 2.528111,-0.923733 0.58341,-0.680645 0.58341,-3.305991 v -5.299309 q -2.72258,1.701613 -6.077189,1.701613 -0.97235,0 -1.993318,-0.19447 Q 11.491613,17.245069 10.37341,16.758894 9.2552073,16.224101 8.5259446,15.154516 7.8452994,14.08493 7.8452994,12.626405 V 8.6397687 Q 7.7966819,6.597833 7.2132717,5.9658053 6.6298615,5.3337776 4.7337784,5.09069 V 4.3614273 H 15.040692 V 5.09069 q -1.896083,0.2430876 -2.528111,0.9237328 -0.58341,0.6320277 -0.58341,2.6253459 z"
         style="font-style:normal;font-variant:normal;font-weight:normal;font-stretch:normal;font-size:48.61751556px;font-family:FreeSerif;-inkscape-font-specification:FreeSerif;fill:url(#linearGradient833);stroke-width:1.15499723"
         id="path1492" />
    </g>
    <path
       id="text837"
       d="m 5.2870157,4.6100549 v 0.019121 c 1.1267462,0.165807 1.9723974,0.4121026 2.4489462,0.8976197 0.54478,0.5550318 0.7248083,1.4876895 0.7591269,2.8432373 a 0.40465545,0.38055736 0 0 1 0,0.0093 v 3.8659121 c 0,0.881658 0.2137021,1.616455 0.6345865,2.24069 0.4633822,0.637602 1.0368247,1.106515 1.7378787,1.422652 0.0014,6.08e-4 0.0028,9.26e-4 0.0041,0.0016 0.74071,0.302014 1.446709,0.52625 2.114599,0.676444 0.676045,0.120642 1.33344,0.181901 1.971974,0.181901 2.237532,0 4.245506,-0.530251 6.053894,-1.593184 a 0.40465545,0.38055736 0 0 1 0.618567,0.321944 v 2.569316 a 17.063732,8.6259946 0 0 0 3.399269,-0.434092 V 8.3793339 c 0,-1.3227333 0.165008,-2.2435414 0.706934,-2.7993122 0.47746,-0.5192157 1.346359,-0.7803359 2.503724,-0.9487795 v -0.021188 h -9.82059 v 0.019121 c 1.129943,0.147972 1.994147,0.4125564 2.463415,0.9601481 0.544157,0.5952221 0.747241,1.5259658 0.747241,2.7900106 v 5.8926631 a 0.40465545,0.38055736 0 0 1 -0.223758,0.340547 l -0.7028,0.329696 0.02015,-0.01137 c -0.509713,0.273919 -1.201128,0.532177 -2.084627,0.788065 -0.868456,0.261356 -1.695205,0.395842 -2.479435,0.395842 -1.281991,0 -2.358107,-0.365603 -3.141411,-1.102259 a 0.40465545,0.38055736 0 0 1 -0.01447,-0.01343 C 12.268255,14.237575 11.896947,13.264873 11.896948,12.15068 V 8.3793339 c 0,-1.3255633 0.161401,-2.2491966 0.706934,-2.8049968 a 0.40465545,0.38055736 0 0 1 0.0021,-0.00206 C 13.104778,5.067061 13.969658,4.8015786 15.105018,4.6312454 v -0.021188 z"
       style="font-size:46.19987869px;font-family:sans-serif;letter-spacing:0;word-spacing:0;fill:url(#linearGradient850);fill-opacity:1;stroke-width:1.15499735"
       inkscape:connector-curvature="0" />
  </g>
</svg>
